X:1
T:Title
%%score { ( 1 3 ) | ( 2 4 ) }
L:1/8
M:4/4
K:A
V:1 treble nm="Grand Piano"
V:3 treble 
V:2 bass 
V:4 bass 
V:1
 z4 z2[Q:1/4=100] [CA][DB] | [Ec]2 [Ec]2 [Ec]2 [EA]2 | .B2 z2 z4 | [DF][EG][FA][FB] c2 c2 | %4
[M:3/4] B6 |[M:1/4] cB |[M:4/4] [CA]2 [CA]2 [CA]2 [Ec]2 | .B2 z2 z4 | %8
 [DF][EG][FA][FB] [Ec]2 [DB]2 |[M:3/4] [CA]6 |[M:1/4] cd |[M:4/4] e2 e2 e2 c2 | d2 d2 d2 B2 | %13
 c2 e2 ecdc |[M:3/4] B6 |[M:1/4] cB |[M:4/4] [CA]2 [CA]2 [CA]2 [Ec]2 | .B2 z2 z4 | %18
 [DF][EG][FA][FB] [Ec]2 [DB]2 |[M:3/4] [CA]6 |] %20
V:2
 z4 z2 [A,,A,]2 | [A,,A,]2 [A,,A,]2 [A,,A,]2 [C,A,]2 | [D,A,]2 [D,A,]2 [A,,A,]2 [A,,A,]2 | %3
 [D,A,][D,A,][D,A,][D,A,] [A,E]2 [A,E]2 |[M:3/4] [E,G,E]6 |[M:1/4] ED | %6
[M:4/4] [A,,A,]2 [A,,A,]2 [A,,A,]2 [A,,A,]2 | [D,A,]2 [D,A,]2 [A,,A,]2 [A,,A,]2 | %8
 [D,A,][D,A,][D,A,][D,A,] [E,A,]2 [E,A,]2 |[M:3/4] [A,,A,]6 |[M:1/4] [A,E]2 | %11
[M:4/4][K:treble] [A,CA]2 [A,CA]2 [A,CA]2[K:bass] [A,E]2 | [E,B,E]2 [E,B,E]2 [E,B,E]2 [E,G,E]2 | %13
 [A,E]2 [A,CA]2 [A,CA][A,E][G,B,E][K:bass][A,E] |[M:3/4] [E,G,E]6 |[M:1/4] E z | %16
[M:4/4] [A,,A,]2 [A,,A,]2 [A,,A,]2 [A,,A,]2 | [D,A,]2 [D,A,]2 [A,,A,]2 [A,,A,]2 | %18
 [D,A,][D,A,][D,A,][D,A,] [E,A,]2 [E,G,]2 |[M:3/4] [A,,A,]6 |] %20
V:3
 x8 | x8 | F-[FA][EG][DF] [CE]2 [CE]2 | x8 |[M:3/4] x6 |[M:1/4] x2 |[M:4/4] x8 | %7
 F-[FA][EG][DF] [CE]2 [CE]2 | x8 |[M:3/4] x6 |[M:1/4] x2 |[M:4/4] x8 | x8 | x8 |[M:3/4] x6 | %15
[M:1/4] x2 |[M:4/4] x8 | F-[FA][EG][DF] [CE]2 [CE]2 | x8 |[M:3/4] x6 |] %20
V:4
 x8 | x8 | x8 | x8 |[M:3/4] x6 |[M:1/4] [E,G,]2 |[M:4/4] x8 | x8 | x8 |[M:3/4] x6 |[M:1/4] z B, | %11
[M:4/4][K:treble] x6[K:bass] x2 | x8 | x7[K:bass] x |[M:3/4] x6 |[M:1/4] [E,G,]-[E,G,D] | %16
[M:4/4] x8 | x8 | x8 |[M:3/4] x6 |] %20

